dist/svgs/unicons/line/vertical-distribution-top.svg

<svg xmlns="http://www.w3.org/2000/svg" viewBox="0 0 24 24"><path d="M3 6h1v5a1 1 0 001 1h14a1 1 0 001-1V6h1a1 1 0 000-2H3a1 1 0 000 2zm3 0h12v4H6zm15 8H3a1 1 0 000 2h2v3a1 1 0 001 1h12a1 1 0 001-1v-3h2a1 1 0 000-2zm-4 4H7v-2h10z"/></svg>

<svg xmlns="http://www.w3.org/2000/svg" viewBox="0 0 24 24"><path d="M3,6H4v5a1,1,0,0,0,1,1H19a1,1,0,0,0,1-1V6h1a1,1,0,0,0,0-2H3A1,1,0,0,0,3,6ZM6,6H18v4H6Zm15,8H3a1,1,0,0,0,0,2H5v3a1,1,0,0,0,1,1H18a1,1,0,0,0,1-1V16h2a1,1,0,0,0,0-2Zm-4,4H7V16H17Z"/></svg>
